icons/plexis/48/openyahtzee.svg

<svg viewBox="0 0 48 48" xmlns="http://www.w3.org/2000/svg" xmlns:xlink="http://www.w3.org/1999/xlink">
  <linearGradient id="a" gradientTransform="matrix(0 -1 1 0 -.0000015 47.999998)" gradientUnits="userSpaceOnUse" x1="1" x2="47">
    <stop offset="0" stop-color="#dd274a"/>
    <stop offset="1" stop-color="#e03858"/>
  </linearGradient>
  <path d="m47 24c0 22.703-.297 23-23 23-22.703 0-23-.297-23-23 0-22.703.297-23 23-23 22.703 0 23 .297 23 23z" fill="url(#a)"/>
  <g opacity=".1" transform="translate(1 1.008)">
    <path d="m15 11.996h17.996c1.656 0 3 1.344 3 3v17.996c0 1.656-1.344 3-3 3h-17.996c-1.66 0-3-1.344-3-3v-17.996c0-1.66 1.344-3 3-3m0 0"/>
    <path d="m27 24c0 1.656-1.344 3-3 3-1.66 0-3-1.344-3-3 0-1.66 1.34-3 3-3 1.656 0 3 1.34 3 3m0 0"/>
    <path d="m33 18c0 1.656-1.344 3-3 3-1.66 0-3-1.344-3-3 0-1.66 1.34-3 3-3 1.656 0 3 1.34 3 3m0 0"/>
    <path d="m21 30c0 1.656-1.344 3-3 3-1.66 0-3-1.344-3-3 0-1.66 1.34-3 3-3 1.656 0 3 1.34 3 3m0 0"/>
  </g>
  <g transform="translate(0 .008)">
    <path d="m15 11.996h17.996c1.656 0 3 1.344 3 3v17.996c0 1.656-1.344 3-3 3h-17.996c-1.66 0-3-1.344-3-3v-17.996c0-1.66 1.344-3 3-3m0 0" fill="#f9f9f9"/>
    <path d="m30 15a3 3 0 0 0-3 3 3 3 0 0 0  3 3 3 3 0 0 0  3-3 3 3 0 0 0-3-3zm-12 .01c-1.656 0-3 1.338-3 3 0 1.654 1.344 3 3 3 1.66 0 3-1.346 3-3 0-1.662-1.34-3-3-3zm6 6c-1.656 0-3 1.338-3 3 0 1.654 1.344 3 3 3 1.66 0 3-1.346 3-3 0-1.662-1.34-3-3-3zm-6 5.99a3 3 0 0 0-3 3 3 3 0 0 0  3 3 3 3 0 0 0  3-3 3 3 0 0 0-3-3zm12 .01c-1.656 0-3 1.338-3 3 0 1.654 1.344 3 3 3 1.66 0 3-1.346 3-3 0-1.662-1.34-3-3-3z" fill="#333" transform="translate(0 -.008)"/>
  </g>
</svg>

<svg xmlns="http://www.w3.org/2000/svg" viewBox="0 0 48 48">
 <defs>
  <linearGradient id="linearGradient3764" x1="1" x2="47" gradientUnits="userSpaceOnUse" gradientTransform="matrix(0,-1,1,0,-1.5e-6,47.999998)">
   <stop style="stop-color:#dd274a;stop-opacity:1"/>
   <stop offset="1" style="stop-color:#e03858;stop-opacity:1"/>
  </linearGradient>
 </defs>
 <g>
  
  
  
 </g>
 <g>
  <path d="m 47,24 C 47,46.703 46.703,47 24,47 1.297,47 1,46.703 1,24 1,1.297 1.297,1 24,1 46.703,1 47,1.297 47,24 z" style="fill:url(#linearGradient3764);fill-opacity:1"/>
 </g>
 <g>
  
 </g>
 <g transform="translate(0,0.008)">
  <g>
   <g transform="translate(1,1)">
    <g style="opacity:0.1">
     <!-- color: #1ac8ef -->
     <g>
      <path d="m 15 11.996 17.996 0 c 1.656 0 3 1.344 3 3 l 0 17.996 c 0 1.656 -1.344 3 -3 3 l -17.996 0 c -1.66 0 -3 -1.344 -3 -3 l 0 -17.996 c 0 -1.66 1.344 -3 3 -3 m 0 0" style="fill:#000;fill-opacity:1;stroke:none;fill-rule:nonzero"/>
      <path d="m 27 24 c 0 1.656 -1.344 3 -3 3 -1.66 0 -3 -1.344 -3 -3 0 -1.66 1.34 -3 3 -3 1.656 0 3 1.34 3 3 m 0 0" style="fill:#000;fill-opacity:1;stroke:none;fill-rule:nonzero"/>
      <path d="m 33 18 c 0 1.656 -1.344 3 -3 3 -1.66 0 -3 -1.344 -3 -3 0 -1.66 1.34 -3 3 -3 1.656 0 3 1.34 3 3 m 0 0" style="fill:#000;fill-opacity:1;stroke:none;fill-rule:nonzero"/>
      <path d="m 21 30 c 0 1.656 -1.344 3 -3 3 -1.66 0 -3 -1.344 -3 -3 0 -1.66 1.34 -3 3 -3 1.656 0 3 1.34 3 3 m 0 0" style="fill:#000;fill-opacity:1;stroke:none;fill-rule:nonzero"/>
     </g>
    </g>
   </g>
  </g>
 </g>
 <g transform="translate(0,0.008)">
  <g>
   <!-- color: #1ac8ef -->
   <g>
    <path d="m 15 11.996 17.996 0 c 1.656 0 3 1.344 3 3 l 0 17.996 c 0 1.656 -1.344 3 -3 3 l -17.996 0 c -1.66 0 -3 -1.344 -3 -3 l 0 -17.996 c 0 -1.66 1.344 -3 3 -3 m 0 0" style="fill:#f9f9f9;fill-opacity:1;stroke:none;fill-rule:nonzero"/>
    <path d="M 30 15 A 3 3 0 0 0 27 18 A 3 3 0 0 0 30 21 A 3 3 0 0 0 33 18 A 3 3 0 0 0 30 15 z M 18 15.01 C 16.344 15.01 15 16.348 15 18.01 C 15 19.664 16.344 21.01 18 21.01 C 19.66 21.01 21 19.664 21 18.01 C 21 16.348 19.66 15.01 18 15.01 z M 24 21.01 C 22.344 21.01 21 22.348 21 24.01 C 21 25.664 22.344 27.01 24 27.01 C 25.66 27.01 27 25.664 27 24.01 C 27 22.348 25.66 21.01 24 21.01 z M 18 27 A 3 3 0 0 0 15 30 A 3 3 0 0 0 18 33 A 3 3 0 0 0 21 30 A 3 3 0 0 0 18 27 z M 30 27.01 C 28.344 27.01 27 28.348 27 30.01 C 27 31.664 28.344 33.01 30 33.01 C 31.66 33.01 33 31.664 33 30.01 C 33 28.348 31.66 27.01 30 27.01 z" transform="translate(0,-0.008)" style="fill:#333;fill-opacity:1;stroke:none;fill-rule:nonzero"/>
   </g>
  </g>
 </g>
</svg>
